Adwaita++-Dark/actions/22/composite-track-preview.svg

<svg fill="none" height="22" viewBox="0 0 22 22" width="22" xmlns="http://www.w3.org/2000/svg">
  <g fill="#e6ddff">
    <path clip-rule="evenodd" d="m5 5v12h12v-12zm-1-2c-.55228 0-1 .44772-1 1v14c0 .5523.44772 1 1 1h14c.5523 0 1-.4477 1-1v-14c0-.55228-.4477-1-1-1z" fill-rule="evenodd"/>
    <path d="m11 6h5v5h-5z" opacity=".5"/>
    <path d="m6 11h5v5h-5z" opacity=".5"/>
  </g>
</svg>

<svg xmlns="http://www.w3.org/2000/svg" fill="none" width="22" height="22" viewBox="0 0 22 22">
 <path fill="#E6DDFF" fill-rule="evenodd" d="M5 5V17H17V5H5ZM4 3C3.44772 3 3 3.44772 3 4V18C3 18.5523 3.44772 19 4 19H18C18.5523 19 19 18.5523 19 18V4C19 3.44772 18.5523 3 18 3H4Z" clip-rule="evenodd"/>
 <rect fill="#E6DDFF" opacity=".5" width="5" height="5" x="11" y="6"/>
 <rect fill="#E6DDFF" opacity=".5" width="5" height="5" x="6" y="11"/>
</svg>
